svg/color/gnnx.svg

<?xml version="1.0" encoding="UTF-8" ?>
<!DOCTYPE svg PUBLIC "-//W3C//DTD SVG 1.1//EN" "http://www.w3.org/Graphics/SVG/1.1/DTD/svg11.dtd">
<svg width="241pt" height="250pt" viewBox="0 0 241 250" version="1.1" xmlns="http://www.w3.org/2000/svg">
<g id="#ffffffff">
<path fill="#ffffff" opacity="1.00" d=" M 0.00 0.00 L 241.00 0.00 L 241.00 250.00 L 0.00 250.00 L 0.00 0.00 M 107.44 13.69 C 97.12 14.93 86.93 17.36 77.27 21.23 C 49.54 32.15 26.58 54.53 14.90 81.95 C 6.29 101.50 3.52 123.58 7.13 144.64 C 11.26 172.85 26.97 199.06 49.44 216.54 C 72.83 234.87 103.58 243.54 133.09 239.96 C 150.89 237.53 168.33 231.39 183.20 221.21 C 204.19 207.18 220.23 185.94 227.97 161.91 C 235.90 137.67 235.37 110.66 226.19 86.85 C 217.29 62.84 199.88 42.14 177.85 29.12 C 156.85 16.60 131.75 11.07 107.44 13.69 Z" />
<path fill="#ffffff" opacity="1.00" d=" M 61.38 65.39 C 81.58 46.04 111.90 37.78 139.06 44.69 C 142.86 45.64 146.83 46.33 150.22 48.40 C 132.04 47.45 113.77 53.33 99.29 64.29 C 84.37 75.13 74.29 91.84 69.91 109.60 C 67.11 122.53 67.35 136.64 73.17 148.74 C 77.95 159.31 86.66 167.87 96.99 173.04 C 109.98 179.64 125.84 179.77 139.22 174.20 C 141.09 173.44 142.96 172.69 144.84 171.96 C 133.86 185.15 117.94 194.13 100.93 196.51 C 95.66 196.89 90.34 196.90 85.07 196.49 C 69.67 194.28 55.51 184.80 47.57 171.42 C 36.12 153.12 32.21 130.39 36.57 109.28 C 40.31 92.65 48.96 77.09 61.38 65.39 Z" />
<path fill="#ffffff" opacity="1.00" d=" M 92.15 83.00 C 103.54 68.72 120.76 59.22 138.93 57.33 C 146.96 57.17 155.23 56.49 163.01 58.94 C 178.32 62.98 189.82 75.98 195.54 90.30 C 184.70 90.68 173.85 90.32 163.00 90.49 C 159.75 90.43 155.98 91.11 153.53 88.42 C 141.58 77.65 124.41 73.23 108.73 76.68 C 102.84 77.71 97.55 80.61 92.15 83.00 Z" />
<path fill="#ffffff" opacity="1.00" d=" M 124.31 110.34 C 150.44 110.44 176.57 110.34 202.69 110.39 C 208.87 139.87 197.51 172.22 174.23 191.31 C 151.34 211.35 117.05 217.11 88.91 205.55 C 96.94 205.47 105.00 204.65 112.76 202.52 C 133.04 196.62 150.85 182.43 160.70 163.69 C 163.96 157.28 166.92 150.58 167.92 143.40 C 153.35 143.31 138.74 143.82 124.19 143.14 C 124.43 132.21 124.22 121.27 124.31 110.34 Z" />
</g>
<g id="#3880feff">
<path fill="#3880fe" opacity="1.00" d=" M 107.44 13.69 C 131.75 11.07 156.85 16.60 177.85 29.12 C 199.88 42.14 217.29 62.84 226.19 86.85 C 235.37 110.66 235.90 137.67 227.97 161.91 C 220.23 185.94 204.19 207.18 183.20 221.21 C 168.33 231.39 150.89 237.53 133.09 239.96 C 103.58 243.54 72.83 234.87 49.44 216.54 C 26.97 199.06 11.26 172.85 7.13 144.64 C 3.52 123.58 6.29 101.50 14.90 81.95 C 26.58 54.53 49.54 32.15 77.27 21.23 C 86.93 17.36 97.12 14.93 107.44 13.69 M 61.38 65.39 C 48.96 77.09 40.31 92.65 36.57 109.28 C 32.21 130.39 36.12 153.12 47.57 171.42 C 55.51 184.80 69.67 194.28 85.07 196.49 C 90.34 196.90 95.66 196.89 100.93 196.51 C 117.94 194.13 133.86 185.15 144.84 171.96 C 142.96 172.69 141.09 173.44 139.22 174.20 C 125.84 179.77 109.98 179.64 96.99 173.04 C 86.66 167.87 77.95 159.31 73.17 148.74 C 67.35 136.64 67.11 122.53 69.91 109.60 C 74.29 91.84 84.37 75.13 99.29 64.29 C 113.77 53.33 132.04 47.45 150.22 48.40 C 146.83 46.33 142.86 45.64 139.06 44.69 C 111.90 37.78 81.58 46.04 61.38 65.39 M 92.15 83.00 C 97.55 80.61 102.84 77.71 108.73 76.68 C 124.41 73.23 141.58 77.65 153.53 88.42 C 155.98 91.11 159.75 90.43 163.00 90.49 C 173.85 90.32 184.70 90.68 195.54 90.30 C 189.82 75.98 178.32 62.98 163.01 58.94 C 155.23 56.49 146.96 57.17 138.93 57.33 C 120.76 59.22 103.54 68.72 92.15 83.00 M 124.31 110.34 C 124.22 121.27 124.43 132.21 124.19 143.14 C 138.74 143.82 153.35 143.31 167.92 143.40 C 166.92 150.58 163.96 157.28 160.70 163.69 C 150.85 182.43 133.04 196.62 112.76 202.52 C 105.00 204.65 96.94 205.47 88.91 205.55 C 117.05 217.11 151.34 211.35 174.23 191.31 C 197.51 172.22 208.87 139.87 202.69 110.39 C 176.57 110.34 150.44 110.44 124.31 110.34 Z" />
</g>
</svg>

<?xml version="1.0" encoding="utf-8"?>
<!-- Generator: Adobe Illustrator 26.0.3, SVG Export Plug-In . SVG Version: 6.00 Build 0)  -->
<svg version="1.1" id="Layer_1" xmlns="http://www.w3.org/2000/svg" xmlns:xlink="http://www.w3.org/1999/xlink" x="0px" y="0px"
	 viewBox="0 0 241 250" style="enable-background:new 0 0 241 250;" xml:space="preserve">
<style type="text/css">
	.st0{fill:#FFFFFF;}
	.st1{fill:#3880FE;}
</style>
<g id="_x23_ffffffff">
	<path class="st0" d="M61.4,65.4c20.2-19.3,50.5-27.6,77.7-20.7c3.8,1,7.8,1.6,11.2,3.7c-18.2-1-36.5,4.9-50.9,15.9
		c-14.9,10.8-25,27.5-29.4,45.3c-2.8,12.9-2.6,27,3.3,39.1c4.8,10.6,13.5,19.1,23.8,24.3c13,6.6,28.8,6.7,42.2,1.2
		c1.9-0.8,3.7-1.5,5.6-2.2c-11,13.2-26.9,22.2-43.9,24.5c-5.3,0.4-10.6,0.4-15.9,0c-15.4-2.2-29.6-11.7-37.5-25.1
		c-11.5-18.3-15.4-41-11-62.1C40.3,92.7,49,77.1,61.4,65.4z"/>
	<path class="st0" d="M92.2,83c11.4-14.3,28.6-23.8,46.8-25.7c8-0.2,16.3-0.8,24.1,1.6c15.3,4,26.8,17,32.5,31.4
		c-10.8,0.4-21.7,0-32.5,0.2c-3.2-0.1-7,0.6-9.5-2.1c-11.9-10.8-29.1-15.2-44.8-11.7C102.8,77.7,97.6,80.6,92.2,83z"/>
	<path class="st0" d="M124.3,110.3c26.1,0.1,52.3,0,78.4,0.1c6.2,29.5-5.2,61.8-28.5,80.9c-22.9,20-57.2,25.8-85.3,14.2
		c8-0.1,16.1-0.9,23.8-3c20.3-5.9,38.1-20.1,47.9-38.8c3.3-6.4,6.2-13.1,7.2-20.3c-14.6-0.1-29.2,0.4-43.7-0.3
		C124.4,132.2,124.2,121.3,124.3,110.3z"/>
</g>
<g id="_x23_3880feff">
	<path class="st1" d="M107.4,13.7c24.3-2.6,49.4,2.9,70.4,15.4c22,13,39.4,33.7,48.3,57.7c9.2,23.8,9.7,50.8,1.8,75.1
		c-7.7,24-23.8,45.3-44.8,59.3c-14.9,10.2-32.3,16.3-50.1,18.8c-29.5,3.6-60.3-5.1-83.6-23.4C27,199.1,11.3,172.9,7.1,144.6
		c-3.6-21.1-0.8-43.1,7.8-62.7c11.7-27.4,34.6-49.8,62.4-60.7C86.9,17.4,97.1,14.9,107.4,13.7 M61.4,65.4
		C49,77.1,40.3,92.7,36.6,109.3c-4.4,21.1-0.5,43.8,11,62.1c7.9,13.4,22.1,22.9,37.5,25.1c5.3,0.4,10.6,0.4,15.9,0
		c17-2.4,32.9-11.4,43.9-24.5c-1.9,0.7-3.8,1.5-5.6,2.2c-13.4,5.6-29.2,5.4-42.2-1.2c-10.3-5.2-19-13.7-23.8-24.3
		c-5.8-12.1-6.1-26.2-3.3-39.1c4.4-17.8,14.5-34.5,29.4-45.3c14.5-11,32.7-16.8,50.9-15.9c-3.4-2.1-7.4-2.8-11.2-3.7
		C111.9,37.8,81.6,46,61.4,65.4 M92.2,83c5.4-2.4,10.7-5.3,16.6-6.3c15.7-3.4,32.8,1,44.8,11.7c2.4,2.7,6.2,2,9.5,2.1
		c10.9-0.2,21.7,0.2,32.5-0.2C189.8,76,178.3,63,163,58.9c-7.8-2.4-16-1.8-24.1-1.6C120.8,59.2,103.5,68.7,92.2,83 M124.3,110.3
		c-0.1,10.9,0.1,21.9-0.1,32.8c14.6,0.7,29.2,0.2,43.7,0.3c-1,7.2-4,13.9-7.2,20.3c-9.8,18.7-27.7,32.9-47.9,38.8
		c-7.8,2.1-15.8,2.9-23.8,3c28.1,11.6,62.4,5.8,85.3-14.2c23.3-19.1,34.6-51.4,28.5-80.9C176.6,110.3,150.4,110.4,124.3,110.3z"/>
</g>
</svg>
